X: 22074
T: Knocknagoshel, The
R: polka
M: 2/4
K: Gmajor
|:GA/G/ ED|GB d2|ed BG|A/B/A/G/ ED|
GA/G/ ED|GB d2|ed BA|G2 G2:|
|:d2 dB/d/|ed B/A/G|c2 cd|ed B/A/G|
d2 dB/d/|ed B/A/G|Ac BA|G2 G2:|

